X: 118
T: Fenhong lian
L: 1/8
M: 2/4
K: G
G G/ A/ d B [I:setbarnb 1]| 
A3d | 
B B/ A/ G E | 
D4 | 
B B/ A/G2 | 
B B/ A/G2 | 
A d G E | 
D4 | 
d d/ g/ B A | 
A d B d | 
A d B B/ A/ | 
G4 | 
B B/ A/ B d | 
B B/ A/G2 | 
A d G E | 
D4 |]

@@@ Tune index: 8992
